!!!OTL: Die Koenigstochter im Heeresdienst Der Meyen isch kommen, un das isch ja wahr!
!!!ARE: Europa, Mitteleuropa, Schweiz
!!!YOR: 5, S. 86
!!    ????
!!!SCT: Q1095D
!!!YEM: Copyright 1995, estate of Helmut Schaffrath.
**kern
*ICvox
*Ivox
*M3/8
*k[f#]
*G:
{8g
=1
8b
8dd
8cc
=2
8b
8g
8a
=3
8b
8dd
8cc
=4
4b}
{8g
=5
8b
8dd
8cc
=6
8b
8g
8a
=7
8b
16dd
16cc
16a
16f#
=8
4g}
==
!!!AGN: Jahreszeiten - Lied, Mai
!! Melodievergleich zu Q0095, anderes Lied.
!!!ONB: ESAC (Essen Associative Code) Database: BALLADE
!!!AMT: simple triple
!!!AIN: vox
!!!EED: Helmut Schaffrath
!!!EEV: 1.0
*-
